X: 34267
T: Reinlender Efter Hilmar Alexanderson
R: barndance
M: 4/4
K: Dmajor
ab a2 fd A2|de d2 c2 cd|ef g2 A2 e2|A2 de fg a2|
ab a2 fd A2|de d2 c2 cd|ef g2 A2 eg|fe d6:|
[K:G] GB|d4 Bcde|d2 d2 B4|d4 dBdg|
g2 f2 f4|c4 ABcd|c2 c2 A4|f2 f2 e2 e2|
dcBc d2 GB|d4 Bcde|d2 d2 B4|d4 dBdg|
g2 e2 e4|a2 a2 agfe|e2 d2 dc B2|A^GAB cdef|=g6||

